brandFactory_export/2.Regular/Servicio tecnico para movil_2Regular.svg

<?xml version="1.0" encoding="UTF-8"?>
<svg width="24px" height="24px" viewBox="0 0 24 24" version="1.1" xmlns="http://www.w3.org/2000/svg" xmlns:xlink="http://www.w3.org/1999/xlink">
    <title>2.Regular/Servicio tecnico para movil_2Regular</title>
    <g id="Symbols" stroke="none" stroke-width="1" fill="none" fill-rule="evenodd">
        <g id="2.Regular/Servicio-tecnico-para-movil_2Regular" fill="#5CB615" fill-rule="nonzero">
            <path d="M19.7781513,-1.0658141e-13 C22.3663866,-1.0658141e-13 23.6773109,1.32773109 23.6773109,3.94957983 L23.6773109,19.6806723 C23.6773109,22.3394958 22.4033613,23.6302521 19.7781513,23.6302521 L11.1563025,23.6302521 C8.53109244,23.6302521 7.25714286,22.3394958 7.25714286,19.6806723 L7.25882848,17.0006501 C7.23826916,17.1489369 7.20852776,17.2962986 7.1697479,17.4420168 C6.6487395,19.3781513 4.65882353,20.5277311 2.72268908,20.010084 C2.5512605,19.9630252 2.39327731,19.8722689 2.26890756,19.7478992 C1.87563025,19.3546218 1.87563025,18.7159664 2.26890756,18.3226891 L2.26890756,18.3226891 L3.05546218,17.5361345 L3.00168067,17.1630252 L2.62857143,17.1092437 L1.84201681,17.8890756 C1.71428571,18.0168067 1.55966387,18.1042017 1.38823529,18.1512605 C0.850420168,18.2957983 0.299159664,17.9764706 0.154621849,17.4386555 C-0.00672268895,16.8336134 -0.00672268895,16.194958 0.14789916,15.589916 C0.564705882,13.989916 2.01008403,12.8705882 3.66386555,12.8705882 C3.77478992,12.8705882 3.88907563,12.8773109 4,12.887395 L4,12.887395 L7.2567597,9.628 L7.25714286,3.94957983 C7.25714286,2.62184874 7.5697479,1.65714286 8.21176471,0.998319328 C8.86386555,0.32605042 9.82857143,-1.0658141e-13 11.1563025,-1.0658141e-13 L19.7781513,-1.0658141e-13 Z M19.7781513,1.34453782 L11.1563025,1.34453782 C10.2084034,1.34453782 9.55966387,1.5394958 9.17310924,1.93613445 C8.78655462,2.33277311 8.60168067,2.99159664 8.60168067,3.94957983 L8.6007597,8.284 L9.56302521,7.3210084 C9.53344538,6.98756303 9.54904202,6.65196639 9.60981513,6.32282353 L9.66386555,6.07731092 C10.0806723,4.47731092 11.5260504,3.35798319 13.1798319,3.35798319 C13.4957983,3.35798319 13.8117647,3.39831933 14.1176471,3.48571429 C14.292437,3.52941176 14.4504202,3.62016807 14.5747899,3.74789916 C14.9680672,4.14117647 14.9647059,4.77983193 14.5714286,5.17310924 L14.5714286,5.17310924 L13.7848739,5.95966387 L13.8386555,6.33277311 L14.2117647,6.38655462 L14.9983193,5.6 C15.1260504,5.47226891 15.2806723,5.38487395 15.4521008,5.33781513 C15.989916,5.19327731 16.5411765,5.51260504 16.6857143,6.05042017 C16.8470588,6.65546218 16.8470588,7.29411765 16.692437,7.89915966 C16.2789916,9.50252101 14.8336134,10.6184874 13.1798319,10.6184874 C13.0689076,10.6184874 12.9546218,10.6117647 12.8436975,10.6016807 L12.8436975,10.6016807 L8.6007597,14.844 L8.60168067,19.6806723 C8.60168067,20.6487395 8.78991597,21.3109244 9.17647059,21.7042017 C9.56302521,22.097479 10.2084034,22.2857143 11.1563025,22.2857143 L19.7781513,22.2857143 C20.7260504,22.2857143 21.3714286,22.0941176 21.7579832,21.7042017 C22.1445378,21.3142857 22.3327731,20.6487395 22.3327731,19.6806723 L22.3327731,3.94957983 C22.3327731,2.07394958 21.6168067,1.34453782 19.7781513,1.34453782 Z M15.4789916,18.3697479 C16.1714286,18.3697479 16.6252101,18.7361345 16.6252101,19.5193277 C16.6252101,19.8957983 16.5210084,20.1747899 16.3361345,20.3663866 C16.1344538,20.5714286 15.8420168,20.6689076 15.4789916,20.6689076 C15.1159664,20.6689076 14.8235294,20.5714286 14.6218487,20.3663866 C14.4369748,20.1781513 14.3327731,19.8957983 14.3327731,19.5193277 C14.3361345,18.7327731 14.7865546,18.3697479 15.4789916,18.3697479 Z M13.1798319,4.36638655 C12.9512605,4.36638655 12.7226891,4.39663866 12.497479,4.45714286 C11.0991597,4.8302521 10.2689076,6.26890756 10.6453782,7.66722689 L10.6453782,7.66722689 L4.34285714,13.9731092 C3.89915966,13.8521008 3.42857143,13.8521008 2.98487395,13.9731092 C1.58655462,14.3462185 0.756302521,15.7848739 1.13277311,17.1831933 L1.13277311,17.1831933 L2.27563025,16.0403361 L3.89915966,16.2722689 L4.13109244,17.8957983 L2.98823529,19.0386555 C3.43193277,19.1596639 3.90252101,19.1596639 4.34621849,19.0386555 C5.74453782,18.6621849 6.57478992,17.2235294 6.19831933,15.8252101 L6.19831933,15.8252101 L7.2567597,14.766 L7.25714286,14.7596639 L7.2637597,14.759 L12.5042017,9.51932773 C12.8845138,9.62304922 13.2845824,9.63786658 13.6705392,9.5637798 L13.8621849,9.51932773 C15.2605042,9.14621849 16.0907563,7.70756303 15.7142857,6.3092437 L15.7142857,6.3092437 L14.5714286,7.45210084 L12.9478992,7.22016807 L12.7159664,5.59663866 L13.8588235,4.45378151 C13.6369748,4.39663866 13.4084034,4.36638655 13.1798319,4.36638655 Z" id="Servicio-tecnico-para-movil_2Regular"></path>
        </g>
    </g>
</svg>

<svg width="24" height="24" viewBox="0 0 24 24" xmlns="http://www.w3.org/2000/svg"><path d="M19.778 0c2.588 0 3.9 1.328 3.9 3.95v15.73c0 2.66-1.275 3.95-3.9 3.95h-8.622c-2.625 0-3.899-1.29-3.899-3.95L7.26 17a3.634 3.634 0 01-4.536 3.01 1.008 1.008 0 01-.454-1.687l.786-.787-.053-.373-.373-.054-.787.78a1.007 1.007 0 01-1.687-.45A3.636 3.636 0 014 12.888l3.257-3.26V3.95c0-1.328.313-2.293.955-2.952C8.864.326 9.829 0 11.156 0h8.622zm0 1.345h-8.622c-.948 0-1.596.194-1.983.591-.386.397-.571 1.056-.571 2.014L8.6 8.284l.962-.963a3.697 3.697 0 01.047-.998l.054-.246a3.636 3.636 0 013.516-2.719c.316 0 .632.04.938.128a1.008 1.008 0 01.454 1.687l-.787.787.054.373.373.054.786-.787a1.007 1.007 0 011.687.45c.162.605.162 1.244.007 1.85a3.625 3.625 0 01-3.848 2.702L8.6 14.844v4.837c0 .968.189 1.63.575 2.023.387.393 1.032.582 1.98.582h8.622c.948 0 1.593-.192 1.98-.582.387-.39.575-1.055.575-2.023V3.95c0-1.876-.716-2.605-2.555-2.605zM15.48 18.37c.692 0 1.146.366 1.146 1.15 0 .376-.104.655-.289.846-.202.205-.494.303-.857.303s-.655-.098-.857-.303c-.185-.188-.29-.47-.29-.847.004-.786.455-1.15 1.147-1.15zm-2.3-14.004a2.618 2.618 0 00-2.534 3.3v.001l-6.302 6.306a2.618 2.618 0 00-3.21 3.21l1.143-1.143 1.623.232.232 1.624-1.143 1.143a2.623 2.623 0 003.21-3.213l1.059-1.06v-.006l.007-.001 5.24-5.24c.38.104.78.119 1.167.045l.191-.045a2.618 2.618 0 001.852-3.21l-1.143 1.143-1.623-.232-.232-1.623 1.143-1.143a2.726 2.726 0 00-.68-.088z" fill="#5CB615" fill-rule="nonzero"/></svg>
